X:268
T: WO MAN SINGET LASS DICH RUHIG NIEDER
N: B0317
O: Europa, Mitteleuropa, Deutschland
R: Geselligkeits - Lied, Freude
M: 4/4
L: 1/16
K: Eb
G2A2 | c2B2G4B2B2e2d2 | d4c4z4
c2c2 | B6G2F2F2c2B2 | A4G4z4
B2B2 | B2D2D4B2B2c2d2 | e8z4
B2B2 | B2d2d4B2B2c2d2 | e8z4
B3B | B4e4d3BA3F | F4E4z4

